client/public/img/game/shared/weapons/acr_world.svg

<svg xmlns="http://www.w3.org/2000/svg" width="145.404" height="27.33" viewBox="0 0 38.471 7.231"><g style="fill:#7e5f35;fill-opacity:1"><path d="M8.864 17.625h8.463v-.86H8.864Z" style="fill:#7e5f35;fill-opacity:1;stroke:#20190e;stroke-width:.396875;stroke-linecap:round;stroke-linejoin:round;stroke-dasharray:none;stroke-opacity:1" transform="translate(11.875 -10.847)"/><g style="fill:#7e5f35;fill-opacity:1;stroke:#20190e;stroke-opacity:1"><path d="M-37.978 41.542v.538m.791-.538v.538m.79-.538v.538m.79-.538v.538m.794-.538v.538m.79-.538v.538m.79-.538v.538m.791-.538v.538m.792-.538v.538m.79-.538v.538m.79-.538v.538" style="fill:#7e5f35;fill-opacity:1;stroke:#20190e;stroke-width:.397;stroke-linecap:butt;stroke-linejoin:round;stroke-dasharray:none;stroke-opacity:1" transform="translate(58.994 -34.849)"/></g></g><g style="fill:#7e5f35;fill-opacity:1"><path d="M8.864 17.625h8.463v-.86H8.864Z" style="fill:#7e5f35;fill-opacity:1;stroke:#20190e;stroke-width:.396875;stroke-linecap:round;stroke-linejoin:round;stroke-dasharray:none;stroke-opacity:1" transform="matrix(1 0 0 -1 11.875 18.079)"/><g style="fill:#7e5f35;fill-opacity:1;stroke:#20190e;stroke-opacity:1"><path d="M-37.978 41.542v.538m.791-.538v.538m.79-.538v.538m.79-.538v.538m.794-.538v.538m.79-.538v.538m.79-.538v.538m.791-.538v.538m.792-.538v.538m.79-.538v.538m.79-.538v.538" style="fill:#7e5f35;fill-opacity:1;stroke:#20190e;stroke-width:.397;stroke-linecap:butt;stroke-linejoin:round;stroke-dasharray:none;stroke-opacity:1" transform="matrix(1 0 0 -1 58.994 42.08)"/></g></g><path d="M-11.187 10.854h-1.629c.166 1.133.143 2.366 0 3.597h1.207" style="fill:#262626;fill-opacity:1;stroke:#171717;stroke-width:.79375;stroke-linecap:butt;stroke-linejoin:round;stroke-dasharray:none;stroke-opacity:1" transform="translate(13.213 -9.037)"/><path d="M-11.722 14.455h.991l.129-.53h3.51V11.38h-3.522l-.105-.53h-.97z" style="fill:#6c502d;fill-opacity:1;stroke:#20170e;stroke-width:.79375;stroke-linecap:butt;stroke-linejoin:round;stroke-dasharray:none;stroke-opacity:1" transform="translate(13.213 -9.037)"/><path d="M-2.786 14.455h-.991l-5.855-.265v-3.076l5.843-.264h.97z" style="fill:#a57a46;fill-opacity:1;stroke:#20170e;stroke-width:.79375;stroke-linecap:butt;stroke-linejoin:round;stroke-dasharray:none;stroke-opacity:1" transform="translate(13.213 -9.037)"/><path d="M15.938 15.038H7.424l-.575-.53v-3.712l.587-.53h8.513Z" style="fill:#b4844b;fill-opacity:1;stroke:#20170e;stroke-width:.79375;stroke-linecap:butt;stroke-linejoin:round;stroke-dasharray:none;stroke-opacity:1" transform="translate(13.213 -9.037)"/><path d="M12.56 11.726h8.732v1.852H12.56z" class="cls-3" style="fill:#4c4133;fill-opacity:1;fill-rule:evenodd;stroke:#1c1812;stroke-width:.79375px;stroke-linecap:round;stroke-linejoin:round;stroke-miterlimit:5.89;stroke-opacity:1" transform="translate(13.213 -9.037)"/><path d="M17.716 11.487h7.121v2.38h-7.121z" class="cls-3" style="fill:#333;fill-opacity:1;fill-rule:evenodd;stroke:none;stroke-width:.79375px;stroke-linecap:round;stroke-linejoin:round;stroke-miterlimit:5.89;stroke-opacity:1" transform="translate(13.213 -9.037)"/><path d="M21.26 11.496h1.48v2.381h-1.48z" class="cls-3" style="fill:#272727;fill-opacity:1;fill-rule:evenodd;stroke:none;stroke-width:.392096px;stroke-linecap:round;stroke-linejoin:round;stroke-miterlimit:5.89;stroke-opacity:1" transform="translate(13.213 -9.037)"/><path d="M17.74 11.415h7.122v2.475h-7.121z" class="cls-3" style="fill:none;fill-opacity:1;fill-rule:evenodd;stroke:#171717;stroke-width:.79375px;stroke-linecap:round;stroke-linejoin:round;stroke-miterlimit:5.89;stroke-opacity:1" transform="translate(13.213 -9.037)"/><path d="M13.046 11.833h-.941V9.98c.402-.272.575-.237.94 0z" style="fill:#404040;fill-opacity:1;stroke:#171717;stroke-width:.396875;stroke-linecap:butt;stroke-linejoin:round;stroke-dasharray:none;stroke-opacity:1" transform="translate(13.213 -9.037)"/><path d="M16.219 13.874H6.96l-.713.764h-9.171v-3.97h9.136l.795.774h9.223z" style="fill:#8f6a3d;fill-opacity:1;stroke:none;stroke-width:.79375;stroke-linecap:butt;stroke-linejoin:round;stroke-dasharray:none;stroke-opacity:1" transform="translate(13.213 -9.037)"/><g style="fill:#2f2f36;fill-opacity:1"><g style="fill:#3b3b44;fill-opacity:1"><path d="M-127.947 54.197h-11.62" style="color:#000;fill:#3b3b44;fill-opacity:1;stroke-linejoin:round;-inkscape-stroke:none" transform="matrix(1.36794 0 0 1 202.037 -50.585)"/><path d="M-139.231 53.535v1.322h11.754v-1.322z" style="color:#000;fill:#6c502d;fill-opacity:1;stroke-width:1.00571;stroke-linejoin:round;-inkscape-stroke:none" transform="matrix(1.36794 0 0 1 202.037 -50.585)"/></g><g style="fill:#362816;fill-opacity:1"><path d="M-136.563 53.53v1.334m-.397-1.334v1.333h.794V53.53z" style="color:#000;fill:#362816;fill-opacity:1;stroke-linejoin:round;-inkscape-stroke:none" transform="translate(148.568 -50.581)"/></g><g style="fill:#362816;fill-opacity:1"><path d="M-135.12 53.53v1.334m-.398-1.334v1.333h.795V53.53z" style="color:#000;fill:#362816;fill-opacity:1;stroke-linejoin:round;-inkscape-stroke:none" transform="translate(148.56 -50.581)"/></g><g style="fill:#362816;fill-opacity:1"><path d="M-133.679 53.53v1.334m-.397-1.334v1.333h.795V53.53z" style="color:#000;fill:#362816;fill-opacity:1;stroke-linejoin:round;-inkscape-stroke:none" transform="translate(148.554 -50.581)"/></g><g style="fill:#362816;fill-opacity:1"><path d="M-130.8 53.53v1.335m-.397-1.334v1.334h.793v-1.334Z" style="color:#000;fill:#362816;fill-opacity:1;stroke-linejoin:round;-inkscape-stroke:none" transform="translate(148.544 -50.582)"/></g><g style="fill:#362816;fill-opacity:1"><path d="M-130.8 53.53v1.335m-.397-1.334v1.334h.793v-1.334Z" style="color:#000;fill:#362816;fill-opacity:1;stroke-linejoin:round;-inkscape-stroke:none" transform="translate(147.11 -50.582)"/></g><g style="fill:#362816;fill-opacity:1"><path d="M-129.358 53.53v1.335m-.396-1.334v1.334h.793v-1.334Z" style="color:#000;fill:#362816;fill-opacity:1;stroke-linejoin:round;-inkscape-stroke:none" transform="translate(148.534 -50.582)"/></g><g style="fill:#362816;fill-opacity:1"><path d="M-127.966 53.53v1.335m-.397-1.334v1.334h.795v-1.233z" style="color:#000;fill:#362816;fill-opacity:1;stroke-linejoin:round;-inkscape-stroke:none" transform="translate(148.577 -50.582)"/></g><g style="fill:#362816;fill-opacity:1"><path d="M-138.005 53.53v1.334m-.397-1.234v1.233h.795V53.63z" style="color:#000;fill:#362816;fill-opacity:1;stroke-linejoin:round;-inkscape-stroke:none" transform="translate(160.051 -50.581)"/></g><g style="fill:#362816;fill-opacity:1"><path d="M-136.563 53.53v1.334m-.397-1.234v1.233h.794V53.63z" style="color:#000;fill:#362816;fill-opacity:1;stroke-linejoin:round;-inkscape-stroke:none" transform="translate(160.045 -50.581)"/></g><g style="fill:#362816;fill-opacity:1"><path d="M-135.12 53.53v1.334m-.398-1.234v1.233h.795V53.63z" style="color:#000;fill:#362816;fill-opacity:1;stroke-linejoin:round;-inkscape-stroke:none" transform="translate(160.037 -50.581)"/></g><g style="fill:#362816;fill-opacity:1"><path d="M-133.679 53.53v1.334m-.397-1.234v1.233h.795V53.63z" style="color:#000;fill:#362816;fill-opacity:1;stroke-linejoin:round;-inkscape-stroke:none" transform="translate(160.031 -50.581)"/></g><g style="fill:#362816;fill-opacity:1"><path d="M-132.243 53.53v1.335m-.396-1.334v1.334h.793v-1.334Z" style="color:#000;fill:#362816;fill-opacity:1;stroke-linejoin:round;-inkscape-stroke:none" transform="translate(160.03 -50.582)"/></g></g><path d="M7.272 11.768h-9.93v-.924h9.79zm0 2.277h-9.93v.924h9.79z" style="fill:#7d5d35;fill-opacity:1;stroke:none;stroke-width:.396875;stroke-linecap:butt;stroke-linejoin:round;stroke-dasharray:none;stroke-opacity:1" transform="translate(13.213 -9.291)"/><path d="M16.325 13.971h-8.73l-.712.948h-9.07l-.63-.53v-3.44l.618-.53h9.046l.796.935h8.694z" style="fill:none;fill-opacity:1;stroke:#20170e;stroke-width:.79375;stroke-linecap:butt;stroke-linejoin:round;stroke-dasharray:none;stroke-opacity:1" transform="translate(13.213 -9.037)"/><path d="m15.401 12.205-7.94-.012-.44-.189h-8.308v1.33H7.04l.459-.176 7.903.012z" style="fill:none;fill-opacity:1;stroke:#20170e;stroke-width:.396875;stroke-linecap:butt;stroke-linejoin:miter;stroke-dasharray:none;stroke-opacity:1" transform="translate(13.213 -9.037)"/><path d="M.036 19.139h-2.14v-1.703h2.14z" style="fill:#404040;fill-opacity:1;stroke:#171717;stroke-width:.396875;stroke-linecap:butt;stroke-linejoin:round;stroke-dasharray:none;stroke-opacity:1" transform="translate(13.254 -14.656)"/><path d="M-1.168 19.139h-.94v-1.703h.94z" style="fill:#262626;fill-opacity:1;stroke:#171717;stroke-width:.396875;stroke-linecap:butt;stroke-linejoin:round;stroke-dasharray:none;stroke-opacity:1" transform="translate(13.254 -14.656)"/><path d="M.036 19.175h-2.14v-1.283H.039z" style="fill:#404040;fill-opacity:1;stroke:#171717;stroke-width:.396875;stroke-linecap:butt;stroke-linejoin:round;stroke-dasharray:none;stroke-opacity:1" transform="translate(28.694 -14.901)"/><path d="M-1.026 19.175h-1.082v-1.283h1.081z" style="fill:#262626;fill-opacity:1;stroke:#171717;stroke-width:.396875;stroke-linecap:butt;stroke-linejoin:round;stroke-dasharray:none;stroke-opacity:1" transform="translate(28.694 -14.901)"/><path d="M22.703 11.4v2.573M21.326 11.4v2.573" style="fill:#404040;fill-opacity:1;stroke:#171717;stroke-width:.396875;stroke-linecap:butt;stroke-linejoin:round;stroke-dasharray:none;stroke-opacity:1" transform="translate(13.213 -9.037)"/></svg>

<?xml version="1.0" encoding="UTF-8" standalone="no"?>
<svg
   width="145.404"
   height="27.33"
   viewBox="0 0 38.471 7.231"
   version="1.1"
   id="svg36"
   xmlns="http://www.w3.org/2000/svg"
   xmlns:svg="http://www.w3.org/2000/svg">
  <defs
     id="defs36" />
  <g
     style="fill:#7e5f35;fill-opacity:1"
     id="g3">
    <path
       style="fill:#7e5f35;fill-opacity:1;stroke:#20190e;stroke-width:.396875;stroke-linecap:round;stroke-linejoin:round;stroke-dasharray:none;stroke-opacity:1"
       d="M8.864 17.625h8.463v-.86H8.864Z"
       transform="translate(11.875 -10.847)"
       id="path1" />
    <g
       style="fill:#7e5f35;fill-opacity:1;stroke:#20190e;stroke-opacity:1"
       id="g2">
      <path
         style="fill:#7e5f35;fill-opacity:1;stroke:#20190e;stroke-width:.397;stroke-linecap:butt;stroke-linejoin:round;stroke-dasharray:none;stroke-opacity:1"
         d="M-37.978 41.542v.538M-37.187 41.542v.538M-36.397 41.542v.538M-35.607 41.542v.538M-34.813 41.542v.538M-34.023 41.542v.538M-33.233 41.542v.538M-32.442 41.542v.538M-31.65 41.542v.538M-30.86 41.542v.538M-30.07 41.542v.538"
         transform="translate(58.994 -34.849)"
         id="path2" />
    </g>
  </g>
  <g
     style="fill:#7e5f35;fill-opacity:1"
     id="g5">
    <path
       style="fill:#7e5f35;fill-opacity:1;stroke:#20190e;stroke-width:.396875;stroke-linecap:round;stroke-linejoin:round;stroke-dasharray:none;stroke-opacity:1"
       d="M8.864 17.625h8.463v-.86H8.864Z"
       transform="matrix(1 0 0 -1 11.875 18.079)"
       id="path3" />
    <g
       style="fill:#7e5f35;fill-opacity:1;stroke:#20190e;stroke-opacity:1"
       id="g4">
      <path
         style="fill:#7e5f35;fill-opacity:1;stroke:#20190e;stroke-width:.397;stroke-linecap:butt;stroke-linejoin:round;stroke-dasharray:none;stroke-opacity:1"
         d="M-37.978 41.542v.538M-37.187 41.542v.538M-36.397 41.542v.538M-35.607 41.542v.538M-34.813 41.542v.538M-34.023 41.542v.538M-33.233 41.542v.538M-32.442 41.542v.538M-31.65 41.542v.538M-30.86 41.542v.538M-30.07 41.542v.538"
         transform="matrix(1 0 0 -1 58.994 42.08)"
         id="path4" />
    </g>
  </g>
  <path
     style="fill:#262626;fill-opacity:1;stroke:#171717;stroke-width:.79375;stroke-linecap:butt;stroke-linejoin:round;stroke-dasharray:none;stroke-opacity:1"
     d="M-11.187 10.854h-1.629c.166 1.133.143 2.366 0 3.597h1.207"
     transform="translate(13.213 -9.037)"
     id="path5" />
  <path
     style="fill:#6c502d;fill-opacity:1;stroke:#20170e;stroke-width:.79375;stroke-linecap:butt;stroke-linejoin:round;stroke-dasharray:none;stroke-opacity:1"
     d="M-11.722 14.455h.991l.129-.53h3.51V11.38h-3.522l-.105-.53h-.97z"
     transform="translate(13.213 -9.037)"
     id="path6" />
  <path
     style="fill:#a57a46;fill-opacity:1;stroke:#20170e;stroke-width:.79375;stroke-linecap:butt;stroke-linejoin:round;stroke-dasharray:none;stroke-opacity:1"
     d="M-2.786 14.455h-.991l-5.855-.265v-3.076l5.843-.264h.97z"
     transform="translate(13.213 -9.037)"
     id="path7" />
  <path
     style="fill:#b4844b;fill-opacity:1;stroke:#20170e;stroke-width:.79375;stroke-linecap:butt;stroke-linejoin:round;stroke-dasharray:none;stroke-opacity:1"
     d="M15.938 15.038H7.424l-.575-.53v-3.712l.587-.53h8.513Z"
     transform="translate(13.213 -9.037)"
     id="path8" />
  <path
     style="fill:#4c4133;fill-opacity:1;fill-rule:evenodd;stroke:#1c1812;stroke-width:.79375px;stroke-linecap:round;stroke-linejoin:round;stroke-miterlimit:5.89;stroke-opacity:1"
     class="cls-3"
     d="M12.56 11.726h8.732v1.852H12.56z"
     transform="translate(13.213 -9.037)"
     id="path9" />
  <path
     style="fill:#333;fill-opacity:1;fill-rule:evenodd;stroke:none;stroke-width:.79375px;stroke-linecap:round;stroke-linejoin:round;stroke-miterlimit:5.89;stroke-opacity:1"
     class="cls-3"
     d="M17.716 11.487h7.121v2.38h-7.121z"
     transform="translate(13.213 -9.037)"
     id="path10" />
  <path
     style="fill:#272727;fill-opacity:1;fill-rule:evenodd;stroke:none;stroke-width:.392096px;stroke-linecap:round;stroke-linejoin:round;stroke-miterlimit:5.89;stroke-opacity:1"
     class="cls-3"
     d="M21.26 11.496h1.48v2.381h-1.48z"
     transform="translate(13.213 -9.037)"
     id="path11" />
  <path
     style="fill:none;fill-opacity:1;fill-rule:evenodd;stroke:#171717;stroke-width:.79375px;stroke-linecap:round;stroke-linejoin:round;stroke-miterlimit:5.89;stroke-opacity:1"
     class="cls-3"
     d="M17.74 11.415h7.122v2.475h-7.121z"
     transform="translate(13.213 -9.037)"
     id="path12" />
  <path
     style="fill:#404040;fill-opacity:1;stroke:#171717;stroke-width:.396875;stroke-linecap:butt;stroke-linejoin:round;stroke-dasharray:none;stroke-opacity:1"
     d="M13.046 11.833h-.941V9.98c.402-.272.575-.237.94 0z"
     transform="translate(13.213 -9.037)"
     id="path13" />
  <path
     style="fill:#8f6a3d;fill-opacity:1;stroke:none;stroke-width:.79375;stroke-linecap:butt;stroke-linejoin:round;stroke-dasharray:none;stroke-opacity:1"
     d="M16.219 13.874H6.96l-.713.764h-9.171v-3.97h9.136l.795.774h9.223z"
     transform="translate(13.213 -9.037)"
     id="path14" />
  <g
     style="fill:#2f2f36;fill-opacity:1"
     id="g29">
    <g
       style="fill:#3b3b44;fill-opacity:1"
       id="g16">
      <path
         style="color:#000;fill:#3b3b44;fill-opacity:1;stroke-linejoin:round;-inkscape-stroke:none"
         d="M-127.947 54.197h-11.62"
         transform="matrix(1.36794 0 0 1 202.037 -50.585)"
         id="path15" />
      <path
         style="color:#000;fill:#6c502d;fill-opacity:1;stroke-width:1.00571;stroke-linejoin:round;-inkscape-stroke:none"
         d="M-139.231 53.535v1.322h11.754v-1.322z"
         transform="matrix(1.36794 0 0 1 202.037 -50.585)"
         id="path16" />
    </g>
    <g
       style="fill:#362816;fill-opacity:1"
       id="g17">
      <path
         style="color:#000;fill:#362816;fill-opacity:1;stroke-linejoin:round;-inkscape-stroke:none"
         d="M-136.563 53.53v1.334M-136.96 53.53v1.333h.794V53.53z"
         transform="translate(148.568 -50.581)"
         id="path17" />
    </g>
    <g
       style="fill:#362816;fill-opacity:1"
       id="g18">
      <path
         style="color:#000;fill:#362816;fill-opacity:1;stroke-linejoin:round;-inkscape-stroke:none"
         d="M-135.12 53.53v1.334M-135.518 53.53v1.333h.795V53.53z"
         transform="translate(148.56 -50.581)"
         id="path18" />
    </g>
    <g
       style="fill:#362816;fill-opacity:1"
       id="g19">
      <path
         style="color:#000;fill:#362816;fill-opacity:1;stroke-linejoin:round;-inkscape-stroke:none"
         d="M-133.679 53.53v1.334M-134.076 53.53v1.333h.795V53.53z"
         transform="translate(148.554 -50.581)"
         id="path19" />
    </g>
    <g
       style="fill:#362816;fill-opacity:1"
       id="g20">
      <path
         style="color:#000;fill:#362816;fill-opacity:1;stroke-linejoin:round;-inkscape-stroke:none"
         d="M-130.8 53.53v1.335M-131.197 53.531v1.334h.793v-1.334Z"
         transform="translate(148.544 -50.582)"
         id="path20" />
    </g>
    <g
       style="fill:#362816;fill-opacity:1"
       id="g21">
      <path
         style="color:#000;fill:#362816;fill-opacity:1;stroke-linejoin:round;-inkscape-stroke:none"
         d="M-130.8 53.53v1.335M-131.197 53.531v1.334h.793v-1.334Z"
         transform="translate(147.11 -50.582)"
         id="path21" />
    </g>
    <g
       style="fill:#362816;fill-opacity:1"
       id="g22">
      <path
         style="color:#000;fill:#362816;fill-opacity:1;stroke-linejoin:round;-inkscape-stroke:none"
         d="M-129.358 53.53v1.335M-129.754 53.531v1.334h.793v-1.334Z"
         transform="translate(148.534 -50.582)"
         id="path22" />
    </g>
    <g
       style="fill:#362816;fill-opacity:1"
       id="g23">
      <path
         style="color:#000;fill:#362816;fill-opacity:1;stroke-linejoin:round;-inkscape-stroke:none"
         d="M-127.966 53.53v1.335M-128.363 53.531v1.334h.795v-1.233z"
         transform="translate(148.577 -50.582)"
         id="path23" />
    </g>
    <g
       style="fill:#362816;fill-opacity:1"
       id="g24">
      <path
         style="color:#000;fill:#362816;fill-opacity:1;stroke-linejoin:round;-inkscape-stroke:none"
         d="M-138.005 53.53v1.334M-138.402 53.63v1.233h.795V53.63z"
         transform="translate(160.051 -50.581)"
         id="path24" />
    </g>
    <g
       style="fill:#362816;fill-opacity:1"
       id="g25">
      <path
         style="color:#000;fill:#362816;fill-opacity:1;stroke-linejoin:round;-inkscape-stroke:none"
         d="M-136.563 53.53v1.334M-136.96 53.63v1.233h.794V53.63z"
         transform="translate(160.045 -50.581)"
         id="path25" />
    </g>
    <g
       style="fill:#362816;fill-opacity:1"
       id="g26">
      <path
         style="color:#000;fill:#362816;fill-opacity:1;stroke-linejoin:round;-inkscape-stroke:none"
         d="M-135.12 53.53v1.334M-135.518 53.63v1.233h.795V53.63z"
         transform="translate(160.037 -50.581)"
         id="path26" />
    </g>
    <g
       style="fill:#362816;fill-opacity:1"
       id="g27">
      <path
         style="color:#000;fill:#362816;fill-opacity:1;stroke-linejoin:round;-inkscape-stroke:none"
         d="M-133.679 53.53v1.334M-134.076 53.63v1.233h.795V53.63z"
         transform="translate(160.031 -50.581)"
         id="path27" />
    </g>
    <g
       style="fill:#362816;fill-opacity:1"
       id="g28">
      <path
         style="color:#000;fill:#362816;fill-opacity:1;stroke-linejoin:round;-inkscape-stroke:none"
         d="M-132.243 53.53v1.335M-132.639 53.531v1.334h.793v-1.334Z"
         transform="translate(160.03 -50.582)"
         id="path28" />
    </g>
  </g>
  <path
     style="fill:#7d5d35;fill-opacity:1;stroke:none;stroke-width:.396875;stroke-linecap:butt;stroke-linejoin:round;stroke-dasharray:none;stroke-opacity:1"
     d="M7.272 11.768h-9.93v-.924h9.79zM7.272 14.045h-9.93v.924h9.79z"
     transform="translate(13.213 -9.291)"
     id="path29" />
  <path
     style="fill:none;fill-opacity:1;stroke:#20170e;stroke-width:.79375;stroke-linecap:butt;stroke-linejoin:round;stroke-dasharray:none;stroke-opacity:1"
     d="M16.325 13.971h-8.73l-.712.948h-9.07l-.63-.53v-3.44l.618-.53h9.046l.796.935h8.694z"
     transform="translate(13.213 -9.037)"
     id="path30" />
  <path
     style="fill:none;fill-opacity:1;stroke:#20170e;stroke-width:.396875;stroke-linecap:butt;stroke-linejoin:miter;stroke-dasharray:none;stroke-opacity:1"
     d="m15.401 12.205-7.94-.012-.44-.189h-8.308v1.33H7.04l.459-.176 7.903.012z"
     transform="translate(13.213 -9.037)"
     id="path31" />
  <path
     style="fill:#404040;fill-opacity:1;stroke:#171717;stroke-width:.396875;stroke-linecap:butt;stroke-linejoin:round;stroke-dasharray:none;stroke-opacity:1"
     d="M.036 19.139h-2.14v-1.703h2.14z"
     transform="translate(13.254 -14.656)"
     id="path32" />
  <path
     style="fill:#262626;fill-opacity:1;stroke:#171717;stroke-width:.396875;stroke-linecap:butt;stroke-linejoin:round;stroke-dasharray:none;stroke-opacity:1"
     d="M-1.168 19.139h-.94v-1.703h.94z"
     transform="translate(13.254 -14.656)"
     id="path33" />
  <path
     style="fill:#404040;fill-opacity:1;stroke:#171717;stroke-width:.396875;stroke-linecap:butt;stroke-linejoin:round;stroke-dasharray:none;stroke-opacity:1"
     d="M.036 19.175h-2.14v-1.283H.039z"
     transform="translate(28.694 -14.901)"
     id="path34" />
  <path
     style="fill:#262626;fill-opacity:1;stroke:#171717;stroke-width:.396875;stroke-linecap:butt;stroke-linejoin:round;stroke-dasharray:none;stroke-opacity:1"
     d="M-1.026 19.175h-1.082v-1.283h1.081z"
     transform="translate(28.694 -14.901)"
     id="path35" />
  <path
     style="fill:#404040;fill-opacity:1;stroke:#171717;stroke-width:.396875;stroke-linecap:butt;stroke-linejoin:round;stroke-dasharray:none;stroke-opacity:1"
     d="M22.703 11.4v2.573M21.326 11.4v2.573"
     transform="translate(13.213 -9.037)"
     id="path36" />
</svg>
